X: 16
T:Pasacorredoiras de Pontevedra
M:2/4
L:1/16
Q:90
R:Pasacorredoiras
A:Rias Baixas
K:C
G2 | E2{F}EC ECEF | G2{A}GE GEGE| F2{G}FD FDFA| GFED C2G2| E2{F}EC ECEF|
 G2{A}GE GEGE |
F2{G}FD FDB,D |1 {B,}C6 :|2 
 |: {B,}C8 | A3F  A3F | G2E2 CDEF |G2AB cBAB| G4 ECEG | cBAG AGFE |GFEF
D2EF
 | G2EC  EFDB, :| C4

